assets/E-mail/Flat/e-mail_flat.svg

<svg width="32" height="32" viewBox="0 0 32 32" fill="none" xmlns="http://www.w3.org/2000/svg">
<rect x="1" y="5" width="30" height="22" rx="1.5" fill="#B4ACBC"/>
<rect x="2" y="7" width="28" height="18" rx="1" fill="#CDC4D6"/>
<path d="M30 23.4001L17.029 15.6175C16.3956 15.2375 15.6044 15.2375 14.971 15.6175L2 23.4001V25.0001C2 25.5524 2.44771 26.0001 3 26.0001L29 26.0001C29.5523 26.0001 30 25.5524 30 25.0001V23.4001Z" fill="#E1D8EC"/>
<path d="M2 9.76619V8H30V9.76619L17.5435 17.2401C16.5934 17.8101 15.4066 17.8101 14.4565 17.2401L2 9.76619Z" fill="#998EA4"/>
<path d="M2 8.6V7C2 6.44772 2.44772 6 3 6H29C29.5523 6 30 6.44772 30 7V8.6L17.029 16.3826C16.3956 16.7626 15.6044 16.7626 14.971 16.3826L2 8.6Z" fill="#F3EEF8"/>
<path d="M16 23C19.866 23 23 19.866 23 16C23 12.134 19.866 9 16 9C12.134 9 9 12.134 9 16C9 19.866 12.134 23 16 23Z" fill="#00A6ED"/>
<path d="M15.9999 11.5001C14.7899 11.4801 13.6399 11.9401 12.7799 12.8001C11.9099 13.6501 11.4399 14.7901 11.4399 16.0001C11.4399 18.4801 13.4599 20.5001 15.9399 20.5001C16.1999 20.5001 16.4099 20.2901 16.4099 20.0301C16.4099 19.7701 16.1999 19.5601 15.9399 19.5601C13.9799 19.5601 12.3799 17.9601 12.3799 16.0001C12.3799 15.0401 12.7599 14.1401 13.4399 13.4701C14.1199 12.8001 15.0299 12.4401 15.9899 12.4401C17.9199 12.4701 19.4999 14.0901 19.4999 16.0601V16.8701C19.4999 17.2401 19.1999 17.5401 18.8299 17.5401C18.4599 17.5401 18.1599 17.2401 18.1599 16.8701V13.7901C18.1599 13.5301 17.9499 13.3201 17.6899 13.3201C17.4299 13.3201 17.1999 13.5301 17.1999 13.7901V13.8801C16.7599 13.5301 16.2099 13.3101 15.5999 13.3101C14.1999 13.3101 13.0599 14.4501 13.0599 15.8501C13.0599 17.2501 14.1999 18.3901 15.5999 18.3901C16.2999 18.3901 16.9399 18.1001 17.3999 17.6401C17.6799 18.1401 18.2099 18.4801 18.8199 18.4801C19.7099 18.4801 20.4399 17.7501 20.4399 16.8601V16.0501C20.4399 13.5801 18.4499 11.5301 15.9999 11.5001ZM15.6099 17.4601C14.7299 17.4601 14.0099 16.7401 14.0099 15.8601C14.0099 14.9801 14.7299 14.2601 15.6099 14.2601C16.4899 14.2601 17.2099 14.9801 17.2099 15.8601C17.2099 16.7401 16.4899 17.4601 15.6099 17.4601Z" fill="#F4F4F4"/>
</svg>

<svg xmlns="http://www.w3.org/2000/svg" width="32" height="32" fill="none"><rect width="30" height="22" x="1" y="5" fill="#B4ACBC" rx="1.5"/><rect width="28" height="18" x="2" y="7" fill="#CDC4D6" rx="1"/><path fill="#E1D8EC" d="m30 23.4-12.971-7.782a2 2 0 0 0-2.058 0L2 23.4V25a1 1 0 0 0 1 1h26a1 1 0 0 0 1-1v-1.6Z"/><path fill="#998EA4" d="M2 9.766V8h28v1.766L17.544 17.24a3 3 0 0 1-3.088 0L2 9.766Z"/><path fill="#F3EEF8" d="M2 8.6V7a1 1 0 0 1 1-1h26a1 1 0 0 1 1 1v1.6l-12.971 7.783a2 2 0 0 1-2.058 0L2 8.6Z"/><path fill="#00A6ED" d="M16 23a7 7 0 1 0 0-14 7 7 0 0 0 0 14Z"/><path fill="#F4F4F4" d="M16 11.5c-1.21-.02-2.36.44-3.22 1.3-.87.85-1.34 1.99-1.34 3.2 0 2.48 2.02 4.5 4.5 4.5a.47.47 0 1 0 0-.94c-1.96 0-3.56-1.6-3.56-3.56 0-.96.38-1.86 1.06-2.53.68-.67 1.59-1.03 2.55-1.03 1.93.03 3.51 1.65 3.51 3.62v.81a.67.67 0 0 1-1.34 0v-3.08a.47.47 0 0 0-.47-.47c-.26 0-.49.21-.49.47v.09c-.44-.35-.99-.57-1.6-.57-1.4 0-2.54 1.14-2.54 2.54 0 1.4 1.14 2.54 2.54 2.54.7 0 1.34-.29 1.8-.75.28.5.81.84 1.42.84.89 0 1.62-.73 1.62-1.62v-.81c0-2.47-1.99-4.52-4.44-4.55Zm-.39 5.96c-.88 0-1.6-.72-1.6-1.6 0-.88.72-1.6 1.6-1.6.88 0 1.6.72 1.6 1.6 0 .88-.72 1.6-1.6 1.6Z"/></svg>
